X:1
T:A Fig For A Kiss
M:9/8
L:1/8
K:G
"Em"G2 B E2 B BAG | "D"F2 A D2 F AGF | "Em"G2 B E2 B BAG | BdB "D"AGF "Em"E3 :|
"Em"g2 e g2 e edB | "D"f2 d d^cd fed | "Em"g2 e g2 e edB | "D"dBG GBd e2 f |
"Em"g2 e g2 e edB | "D"f2 d d^cd fed | "Em"gfe "D"fed "Em"edB | \
"Em"BdB "D"AGF "Em"E3 |]
